X:936
T:Lord Randall
T: (abc by Comyn)
M:4/4
L:1/8
K:G
"D" f2 f2 fe2d| a2 a2a4|"Bm"f2f2f g2 f|"A7"f2ede4|
f2 "D"ff ed3|"D7"a2 aa g f3|"D"a2 ab "Bm"f2 ed| "A7"f2 ee "D"d2||
|:de "D"f4 g2| a2 "A7"(e4e2)| de "Bm"f4 B2 |AB "D"(d4d2):|
